X:1
T:Drink, Boys, Drink
M:4/4
L:1/8
K:F
C-F| F2 F2 G2 E2| F2G-A A2 A2|B-c A4 cA| F2 F2 G2 E2| F2G-A A2 A2|\
 B2 G4 AA| B2 d2 B2 A c3| AA B2 d2B-c| c4 cA F2| F2A-FG-E C2| C2 C2 F2 E2|\
 F4 CC F2| FE-D C B3 A| cc B2 BB-G E| F4- FC F2| FE-D C B2 BA| Bc B2 BB GE|\
 F4- FA c2| cc-B A B2 d2| B2 cc cA-B A| G4- GC F2| FE-D C B3 A| Bc B2 BB-G E|\
 F4- FF
M:4/4
| B4 d4| c6 F2| A2 G2 F2 B2| A4 G3 C| F2 G2 A2 C2| B4 G4| A4 c4| A2 GF G2 G2|\
 F8|
